**kern	**kern	**dynam
*part1	*part1	*part1
*staff2	*staff1	*
*I"Piano	*	*
*clefF4	*clefF4	*
*k[f#c#g#]	*k[f#c#g#]	*
=1	=1	=1
(8AAAL 8AA	(8EL 8A 8c#	.
8EE	8E 8G# 8B	.
8FF#	8C# 8F# 8A	.
8DDJ)	8F#J 8A 8d	.
=	=	=
2EE	4E 4A 4c#	.
.	4D) 4G# 4B	.
=	=	=
2FF#	(2C# 2F# 2A	.
=	=	=
2BBB 2BB	2D) 2F# 2B 2d	.
=	=	=
(4CC# 4C#	(4E#X 4G# 4c#	.
*	*^	*
8DDL 8D	8BL	4F#	.
8DD#XJ) 8Cn	8AJ)	.	.
*	*v	*v	*
=	=	=
.	(8qqE/ 8qqG#	.
*^	*	*
(4BB	2EE	2G#) 2B	.
4E)	.	.	.
*v	*v	*	*
*	*clefG2	*
=	=	=
*	*^	*
4E 4B	(4ee	4e 4b	p
8EL 8B	4ee	8eL 8b	.
8EJ 8B	.	8eJ 8b	.
=	=	=	=
8AL 8c#	4ee	8aL 8cc#	.
8EJ 8B	.	8eJ 8b	.
4C# 4A	4ee)	4e 4a	.
=	=	=	=
4E 4B	(4ee	4e 4b	.
8AL 8c#	4ee	8aL 8cc#	.
8C#J 8A	.	8eJ 8a	.
*	*v	*v	*
=	=	=
*-	*-	*-
!!!system-decoration: {(s1,s2)}
